src/icons/solid/navigation/chevron-up.svg

<svg width="24" height="24" viewBox="0 0 24 24" fill="none" xmlns="http://www.w3.org/2000/svg">
<g clip-path="url(#clip0_4573_404)">
<path d="M23 16.9801C23 17.3652 22.8544 17.7603 22.5728 18.0542C22 18.652 21.0777 18.652 20.5146 18.0542L12 9.16797L3.48543 18.0542C2.91262 18.652 1.99029 18.652 1.42718 18.0542C0.864074 17.4564 0.854366 16.4938 1.42718 15.9061L10.9709 5.94583C11.2427 5.66212 11.6116 5.5 12 5.5C12.3883 5.5 12.7573 5.66212 13.0291 5.94583L22.5728 15.9061C22.8544 16.1999 23 16.5951 23 16.9801Z" fill="#3C3B44"/>
</g>
<defs>
<clipPath id="clip0_4573_404">
<rect width="24" height="24" fill="white"/>
</clipPath>
</defs>
</svg>

<svg xmlns="http://www.w3.org/2000/svg" width="24" height="24" fill="none" viewBox="0 0 24 24"><g clip-path="url(#a)"><path fill="currentColor" d="M23 16.98c0 .385-.146.78-.427 1.074a1.405 1.405 0 0 1-2.058 0L12 9.168l-8.515 8.886a1.405 1.405 0 0 1-2.058 0c-.563-.598-.573-1.56 0-2.148l9.544-9.96c.272-.284.64-.446 1.029-.446s.757.162 1.03.446l9.543 9.96c.281.294.427.69.427 1.074"/></g><defs><clipPath id="a"><path fill="currentColor" d="M0 0h24v24H0z"/></clipPath></defs></svg>
